X: 1
T: Cambo, The
M: 3/4
L: 1/8
R: mazurka
K: Dmaj
A2 |:
f>d A2 F2 | G>B e2 d2 | (3ceg b2 a2 | (3afd A2 A2 |
f>d A2 F2 | G>B e2 d2 | (3ceg b2 a2 |1 d3-d2 e :|2 d4 ||
|: a2 |
b>a g2 e2 | d>e f2 d2 | c>d e2 A2 | d>e f>g ^g>a |
b>a g2 e2 | d>e f2 d2 | c>d e2 A2 | d4 :|
